Hatter-kde/actions/24/format-text-subscript.svg

<svg xmlns="http://www.w3.org/2000/svg" viewBox="0 0 24 24">
  <defs id="defs3051">
    <style type="text/css" id="current-color-scheme">
      .ColorScheme-Text {
        color:#363636;
      }
      </style>
  </defs>
 <path style="fill:currentColor;fill-opacity:1;stroke:none" 
     d="M 9.2167969 4 L 4 18 L 5.6875 18 L 7.3554688 13.570312 L 12.917969 13.570312 L 13.066406 14 L 14.732422 14 L 11.210938 4 L 9.2167969 4 z M 10.232422 5.6113281 L 12.361328 12.285156 L 7.8730469 12.285156 L 10.232422 5.6113281 z M 15 14 L 15 16 L 15 17 L 15 19 L 15 20 L 16 20 L 18 20 C 19.108 20 20 19.108 20 18 C 20 17.18906 19.518735 16.498104 18.828125 16.183594 C 18.934075 15.977744 19 15.74831 19 15.5 C 19 14.669 18.331 14 17.5 14 L 16 14 L 15 14 z M 16 15 L 17.5 15 C 17.777 15 18 15.223 18 15.5 C 18 15.777 17.777 16 17.5 16 L 16 16 L 16 15 z M 16 17 L 17.5 17 L 18 17 C 18.554 17 19 17.446 19 18 C 19 18.554 18.554 19 18 19 L 16 19 L 16 17 z "
     class="ColorScheme-Text"
     />
</svg>

<?xml version="1.0" encoding="UTF-8"?>
<svg viewBox="0 0 24 24" xmlns="http://www.w3.org/2000/svg">
 <defs id="defs3051">
  <style id="current-color-scheme" type="text/css">.ColorScheme-Text {
        color:#363636;
      }</style>
 </defs>
 <path class="ColorScheme-Text" d="m9.2168 4-5.2168 14h1.6875l1.668-4.4297h5.5625l0.14844 0.42969h1.666l-3.5215-10h-1.9941zm1.0156 1.6113 2.1289 6.6738h-4.4883l2.3594-6.6738zm4.7676 8.3887v2 1 2 1h1 2c1.108 0 2-0.892 2-2 0-0.81094-0.48126-1.5019-1.1719-1.8164 0.10595-0.20585 0.17188-0.43528 0.17188-0.68359 0-0.831-0.669-1.5-1.5-1.5h-1.5-1zm1 1h1.5c0.277 0 0.5 0.223 0.5 0.5s-0.223 0.5-0.5 0.5h-1.5v-1zm0 2h1.5 0.5c0.554 0 1 0.446 1 1s-0.446 1-1 1h-2v-2z" fill="currentColor"/>
</svg>
